**kern	**kern	**dynam
*part1	*part1	*part1
*staff2	*staff1	*
*I"Piano	*	*
*clefF4	*clefG2	*
*k[f#c#]	*k[f#c#]	*
=1	=1	=1
4r	4r	>
(4GG	4B [4d 4e	.
4FF#)	4A 4d] 4f#	.
=	=	=
4r	4r	]
(4FF#	(4c# 4f#	.
4BB)	4B) 4d	.
=	=	=
4r	4r	.
(4GG	(4B 4d	.
4AA)	4A) 4c#	.
=	=	=
(4FF#	(4A 4c#	.
4GG)	4G) 4B	.
4AA	4F#< 4A<	.
=	=	=
4BB 4D	8AL<	.
.	8GJ<	.
4AA 4D	(4F#'<	.
4AA 4C#	4E'<)	.
=	=	=
2.DD 2.AA	2.D< 2.F#<	p
=	=	=
2.DD 2.AA	2.D< 2.F#<	.
=	=	=
*-	*-	*-
!!!system-decoration: {(s1,s2)}
!!!RDF**kern: < = below
